!!!OTL: Still, still, still, wer Gott erkennen will (4-9), S. 12
!!!id: P0570
**kern
*clefG2
*k[b-]
*F:
{8f
=1
8f
2cc
2b-
=2
2a}
4r
=3
{8cc
8b-
=4
8a
8cc
4a
8g
8f
4g
=5
2f}
4r
=6
{8f
8g
=7
4a
4cc
8a
8g
4f
=8
8g
8a
8b-
8a
4g}
=9
{8f
8g
=10
4a
4cc
8a
8g
4f
=11
8g
8a
8b-
8a
4g}
4r
=12
{2cc
2b-
=13
2a}
4r
=14
{8cc
8b-
=15
8a
8cc
4a
8g
8f
4g
=16
2f}
2r
==
*-
!!!minrhy: 8
!!!meters: 4/4 ]  ZZ[6
!!!cut: Still, still, still, wer Gott erkennen will (4-9), S. 12
!!!reg: Lothringen
!!!trd: PINCK, Louis: Verklingende Weisen Bd 4, Kassel 1939
!!!rhy1:   X__X__  X__0_
!!!rhy2: XX  XXX_XXX_  X__0_
!!!key: P0570  08  F 4/4 ]  ZZ[6
!!!mod: PENTATONIK DUR ?]  AMBITUS[5
!!!kad: 312231
!!!akz: 543_321_3322_3322_543_321_
!!!fot: 'a__as'b__b__a__as'
!!!for: 'a__b__c__cv_a__bv_
!!!fok: '\__\__Ma_Ma_\__\__
!! PHRAS[VORWIEGEND AUFTAKTIG]
!!!fkt: geistliches, religiöses Lied
!! LOTH VKL
!! PR[27] 2K[0] 2G[14] 3K[2] 3G[0] 4A[15] 4Ü[0] 5A[0] 6K[0] 6G[0]
!! 7K[0] 7G[0] 8A[0] MEHR[0] SI[30] ABS[66] SR[14] SP[17]
!! ST[14] 2k[8] 2g[27] 3k[0] 3g[0] 4d[8] 4ü[0] 5d[0] 6k[0] 6g[0]
!! 7k[0] 7g[0] 8d[0] mehr[0] si[42] dm[-12] sr[35] sp[8]
!! 1F[55] 2F[38] 3F[6] 4F[0] LF[0] 2P[1] 3P[0] 4P[0] TRI[0] DF[4] AB[71]
!! TF[0] U3K[0] U3[0] U4[0] U4Ü[0] U5[9] U6K[0] U6[0] U7K[0] U7[0]
!! N1[22] N2K[0] N2[22] N3K[0] N3[39] N4[7] N4Ü[0] N5[0] N6K[0] N6[0]
!!!n7k: 0] N7[0] O1[0] O2K[0] O2[0] O3K[0] O3[0] HÖ[0
